layanan/assets/img/img-systemdev/newlayout/icon-close.svg

<?xml version="1.0" encoding="UTF-8"?>
<svg width="15px" height="15px" viewBox="0 0 15 15" version="1.1" xmlns="http://www.w3.org/2000/svg" xmlns:xlink="http://www.w3.org/1999/xlink">
    <!-- Generator: Sketch 52.1 (67048) - http://www.bohemiancoding.com/sketch -->
    <title>close</title>
    <desc>Created with Sketch.</desc>
    <g id="Page-1" stroke="none" stroke-width="1" fill="none" fill-rule="evenodd">
        <g id="Web-Sistem---POP-UP" transform="translate(-901.000000, -4989.000000)" fill="#FFFFFF" fill-rule="nonzero">
            <g id="POP-UP" transform="translate(0.000000, 60.000000)">
                <g id="close" transform="translate(901.000000, 4929.000000)">
                    <path d="M8.87422442,7.5001112 L14.7149229,1.65911352 C15.0950257,1.27918083 15.0950257,0.664882198 14.7149229,0.284949513 C14.3349982,-0.0949831711 13.7207123,-0.0949831711 13.3407875,0.284949513 L7.49991101,6.12594724 L1.65921253,0.284949513 C1.27910979,-0.0949831711 0.665001849,-0.0949831711 0.285077052,0.284949513 C-0.095025684,0.664882198 -0.095025684,1.27918083 0.285077052,1.65911352 L6.12577558,7.5001112 L0.285077052,13.3411089 C-0.095025684,13.7210416 -0.095025684,14.3353403 0.285077052,14.7152729 C0.474416617,14.9047944 0.723369685,15 0.972144813,15 C1.2209199,15 1.46969502,14.9047944 1.65921253,14.7152729 L7.49991101,8.87427521 L13.3407875,14.7152729 C13.530305,14.9047944 13.7790801,15 14.0278552,15 C14.2766303,15 14.5254054,14.9047944 14.7149229,14.7152729 C15.0950257,14.3353403 15.0950257,13.7210416 14.7149229,13.3411089 L8.87422442,7.5001112 Z" id="Path"></path>
                </g>
            </g>
        </g>
    </g>
</svg>

<svg id="Layer_1" data-name="Layer 1" xmlns="http://www.w3.org/2000/svg" viewBox="0 0 15 15"><path d="M8.87,7.5l5.84-5.84a1,1,0,0,0,0-1.38,1,1,0,0,0-1.37,0L7.5,6.13,1.66.28A1,1,0,0,0,.29.28a1,1,0,0,0,0,1.38L6.13,7.5.29,13.34a1,1,0,0,0,0,1.38A1,1,0,0,0,1,15a1,1,0,0,0,.69-.28L7.5,8.87l5.84,5.85A1,1,0,0,0,14,15a1,1,0,0,0,.68-.28,1,1,0,0,0,0-1.38Z" transform="translate(0 0)" style="fill:#fff"/></svg>
